assets/Face with rolling eyes/Flat/face_with_rolling_eyes_flat.svg

<svg width="32" height="32" viewBox="0 0 32 32" fill="none" xmlns="http://www.w3.org/2000/svg">
<path d="M15.9989 29.9978C25.3333 29.9978 29.9978 23.7303 29.9978 15.9989C29.9978 8.26751 25.3333 2 15.9989 2C6.66443 2 2 8.26751 2 15.9989C2 23.7303 6.66443 29.9978 15.9989 29.9978Z" fill="#FFB02E"/>
<path d="M10.5 19C12.9853 19 15 16.9853 15 14.5C15 12.9241 14.1899 11.5373 12.9634 10.7335L11.0095 11.3582L9.20656 10.1886C7.35171 10.7443 6 12.4643 6 14.5C6 16.9853 8.01472 19 10.5 19Z" fill="white"/>
<path d="M21.5 19C23.9853 19 26 16.9853 26 14.5C26 12.4642 24.6482 10.7442 22.7933 10.1886L21.0599 11.5395L19.0477 10.7263C17.815 11.529 17 12.9193 17 14.5C17 16.9853 19.0147 19 21.5 19Z" fill="white"/>
<path d="M13 11C13 12.1046 12.1046 13 11 13C9.89543 13 9 12.1046 9 11C9 10.716 9.05921 10.4457 9.16597 10.201C9.58749 10.0704 10.0355 10 10.5 10C11.4183 10 12.2723 10.275 12.9842 10.7472C12.9946 10.83 13 10.9144 13 11Z" fill="#402A32"/>
<path d="M23 11C23 12.1046 22.1046 13 21 13C19.8954 13 19 12.1046 19 11C19 10.9144 19.0054 10.83 19.0158 10.7472C19.7277 10.275 20.5817 10 21.5 10C21.9645 10 22.4125 10.0704 22.834 10.201C22.9408 10.4457 23 10.716 23 11Z" fill="#402A32"/>
<path d="M12 25C12 24.4477 12.4477 24 13 24H19C19.5523 24 20 24.4477 20 25C20 25.5523 19.5523 26 19 26H13C12.4477 26 12 25.5523 12 25Z" fill="#402A32"/>
</svg>

<svg xmlns="http://www.w3.org/2000/svg" width="32" height="32" fill="none"><path fill="#FFB02E" d="M15.999 29.998c9.334 0 13.999-6.268 13.999-14 0-7.73-4.665-13.998-14-13.998C6.665 2 2 8.268 2 15.999c0 7.731 4.664 13.999 13.999 13.999Z"/><path fill="#fff" d="M10.5 19a4.5 4.5 0 0 0 2.463-8.267l-1.954.625-1.802-1.17A4.502 4.502 0 0 0 10.5 19ZM21.5 19a4.5 4.5 0 0 0 1.293-8.811l-1.733 1.35-2.012-.813A4.5 4.5 0 0 0 21.5 19Z"/><path fill="#402A32" d="M13 11a2 2 0 1 1-3.834-.799A4.5 4.5 0 0 1 10.5 10c.918 0 1.772.275 2.484.747.01.083.016.167.016.253ZM23 11a2 2 0 1 1-3.984-.253A4.479 4.479 0 0 1 21.5 10a4.5 4.5 0 0 1 1.334.201c.107.245.166.515.166.799ZM12 25a1 1 0 0 1 1-1h6a1 1 0 1 1 0 2h-6a1 1 0 0 1-1-1Z"/></svg>
